images_Srikandi_svg/cmd/lc_formatline.svg

<?xml version="1.0" encoding="UTF-8" standalone="no"?>
<svg
   xmlns:dc="http://purl.org/dc/elements/1.1/"
   xmlns:cc="http://creativecommons.org/ns#"
   xmlns:rdf="http://www.w3.org/1999/02/22-rdf-syntax-ns#"
   xmlns:svg="http://www.w3.org/2000/svg"
   xmlns="http://www.w3.org/2000/svg"
   xmlns:xlink="http://www.w3.org/1999/xlink"
   xmlns:sodipodi="http://sodipodi.sourceforge.net/DTD/sodipodi-0.dtd"
   xmlns:inkscape="http://www.inkscape.org/namespaces/inkscape"
   height="24"
   viewBox="0 0 6.3499999 6.3500002"
   width="24"
   id="svg2"
   version="1.1"
   inkscape:version="0.91 r13725"
   sodipodi:docname="lc_formatline.svg"
   inkscape:export-filename="/home/tamara/Desktop/IKON/5_258 (tamara)/sc (222)/Tanggal 12/lc_formatline.png"
   inkscape:export-xdpi="90"
   inkscape:export-ydpi="90">
  <metadata
     id="metadata91">
    <rdf:RDF>
      <cc:Work
         rdf:about="">
        <dc:format>image/svg+xml</dc:format>
        <dc:type
           rdf:resource="http://purl.org/dc/dcmitype/StillImage" />
        <dc:title />
      </cc:Work>
    </rdf:RDF>
  </metadata>
  <defs
     id="defs89" />
  <sodipodi:namedview
     pagecolor="#ffffff"
     bordercolor="#666666"
     borderopacity="1"
     objecttolerance="10"
     gridtolerance="10"
     guidetolerance="10"
     inkscape:pageopacity="0"
     inkscape:pageshadow="2"
     inkscape:window-width="1366"
     inkscape:window-height="718"
     id="namedview87"
     showgrid="true"
     inkscape:zoom="29.5"
     inkscape:cx="1.6715136"
     inkscape:cy="7.6963161"
     inkscape:window-x="0"
     inkscape:window-y="0"
     inkscape:window-maximized="1"
     inkscape:current-layer="svg2">
    <inkscape:grid
       type="xygrid"
       id="grid4235" />
  </sodipodi:namedview>
  <radialGradient
     id="a"
     cx="99.156181"
     cy="13.639135"
     gradientTransform="matrix(0.14741241,0.11203225,-0.56404681,0.73609898,49.50444,201.41604)"
     gradientUnits="userSpaceOnUse"
     r="9.857213">
    <stop
       offset="0"
       id="stop5" />
    <stop
       offset="1"
       stop-opacity="0"
       id="stop7" />
  </radialGradient>
  <linearGradient
     id="b"
     gradientTransform="matrix(0.72897662,0,0,0.72598702,-18.526452,213.82093)"
     gradientUnits="userSpaceOnUse"
     spreadMethod="reflect"
     x1="78.431374"
     x2="69.490196"
     y1="62.459103"
     y2="55.825741">
    <stop
       offset="0"
       stop-color="#888"
       id="stop10" />
    <stop
       offset="1"
       stop-color="#bbb"
       id="stop12" />
  </linearGradient>
  <linearGradient
     id="c"
     gradientTransform="matrix(0.13653456,0.04363008,-0.02652868,0.12360398,-29.720108,278.33946)"
     gradientUnits="userSpaceOnUse"
     x1="539.04834"
     x2="555.34161"
     xlink:href="#d"
     y1="-767.43756"
     y2="-610.23682" />
  <linearGradient
     id="d">
    <stop
       offset="0"
       stop-color="#fff"
       id="stop16" />
    <stop
       offset="1"
       stop-color="#fff"
       stop-opacity="0"
       id="stop18" />
  </linearGradient>
  <linearGradient
     id="e"
     gradientUnits="userSpaceOnUse"
     x1="891.8454"
     x2="904.70825"
     xlink:href="#d"
     y1="-84.782005"
     y2="-162.58592" />
  <filter
     id="f">
    <feGaussianBlur
       stdDeviation=".61501941"
       id="feGaussianBlur22" />
  </filter>
  <linearGradient
     id="g"
     gradientUnits="userSpaceOnUse"
     x1="1045.9608"
     x2="1028.2097"
     y1="-31.267752"
     y2="-37.855988">
    <stop
       offset="0"
       stop-color="#83560b"
       id="stop25" />
    <stop
       offset="1"
       stop-color="#fff2bc"
       id="stop27" />
  </linearGradient>
  <linearGradient
     id="h"
     gradientUnits="userSpaceOnUse"
     x1="1044.3921"
     x2="1073.2549"
     xlink:href="#d"
     y1="-55.058823"
     y2="-55.058823" />
  <linearGradient
     id="i"
     gradientUnits="userSpaceOnUse"
     x1="679.65686"
     x2="729.10187"
     y1="-52.91481"
     y2="-37.855988">
    <stop
       offset="0"
       stop-color="#5b3b07"
       id="stop31" />
    <stop
       offset="1"
       stop-color="#fef4e6"
       id="stop33" />
  </linearGradient>
  <clipPath
     id="j">
    <path
       d="m 665.72548,30.745097 c 10.51032,-21.0034928 22.53421,-42.696901 51.92157,-56.313725 -2.49685,-21.762736 -1.07935,-43.264316 10.66667,-63.372549 1.74869,-3.012147 -4.73358,-12.842133 -12.11092,-16.082473 -6.83439,-3.00187 -15.04158,-0.74585 -15.96751,1.80797 -6.38543,18.878224 -13.76913,36.077939 -21.6371,57.311913 -9.49547,25.626276 -9.82259,54.3187513 -12.87271,76.648864 z"
       id="path36"
       inkscape:connector-curvature="0" />
  </clipPath>
  <filter
     id="k">
    <feGaussianBlur
       stdDeviation=".50819632"
       id="feGaussianBlur39" />
  </filter>
  <linearGradient
     id="l"
     gradientTransform="matrix(0.12674642,0.04074088,-0.02462686,0.11541897,-96.504086,251.99985)"
     gradientUnits="userSpaceOnUse"
     x1="951.13098"
     x2="1036.245"
     xlink:href="#d"
     y1="-451.47937"
     y2="-424.01111" />
  <linearGradient
     id="m"
     gradientTransform="matrix(0.12674642,0.04074088,-0.02462686,0.11541897,-96.504086,251.99985)"
     gradientUnits="userSpaceOnUse"
     x1="932.66144"
     x2="908.24371"
     y1="-257.53949"
     y2="-262.86356">
    <stop
       offset="0"
       id="stop43" />
    <stop
       offset="1"
       stop-color="#464646"
       id="stop45" />
  </linearGradient>
  <clipPath
     id="n">
    <path
       d="m 0,263.13333 33.866665,0 0,33.86667 L 0,297 Z"
       id="path48"
       inkscape:connector-curvature="0" />
  </clipPath>
  <filter
     id="o"
     height="1.0816489"
     width="1.116384"
     x="-0.058192"
     y="-0.040824"
     style="color-interpolation-filters:sRGB">
    <feGaussianBlur
       stdDeviation="1.1361026"
       id="feGaussianBlur51" />
  </filter>
  <g
     id="g4303"
     transform="matrix(2.3080932,2.3080932,-2.3080932,2.3080932,19.309675,12.099412)">
    <path
       sodipodi:nodetypes="ccccccccc"
       inkscape:connector-curvature="0"
       id="path4253"
       d="m -5.5181982,1.5875 c -0.038052,0.2645834 -0.038052,0.2645834 -0.2677544,0.2962933 l 0,0.2027489 c 0.2297023,0.030125 0.3468346,0.7921647 0.3468346,0.7921647 l 0.022005,-1e-6 c 0,0 0.125446,-0.7620392 0.3549567,-0.7889936 l -2e-6,-0.2106765 C -5.291667,1.8520834 -5.291667,1.8520814 -5.3233769,1.5875001 Z"
       style="fill:#f3b7d9;fill-opacity:1;fill-rule:evenodd;stroke:#e601b4;stroke-width:0.02026442;stroke-linecap:butt;stroke-linejoin:miter;stroke-miterlimit:4;stroke-dasharray:none;stroke-opacity:1" />
    <path
       sodipodi:nodetypes="ssccsccsss"
       inkscape:connector-curvature="0"
       id="path4247"
       d="m -5.7510703,0.58187403 c -0.038782,0 -0.069763,0.0309808 -0.069763,0.0697632 l 0,0.91829017 0,0.024805 c 0,0 0.177687,0.1322917 0.396875,0.1322917 0.219188,0 0.396875,-0.1322917 0.396875,-0.1322917 l 0,-0.024805 0,-0.91829017 c 0,-0.0387824 -0.030981,-0.0697632 -0.069763,-0.0697632 z"
       style="opacity:1;fill:#f0e3ec;fill-opacity:1;fill-rule:nonzero;stroke:#9e3a9c;stroke-width:0.02026442;stroke-linecap:round;stroke-linejoin:round;stroke-miterlimit:4;stroke-dasharray:none;stroke-dashoffset:0;stroke-opacity:1" />
    <path
       inkscape:connector-curvature="0"
       id="path4255"
       d="m -5.4287427,2.9104167 0.00245,-0.766549"
       style="fill:none;fill-rule:evenodd;stroke:#e601b4;stroke-width:0.02026442;stroke-linecap:butt;stroke-linejoin:miter;stroke-miterlimit:4;stroke-dasharray:none;stroke-opacity:1"
       sodipodi:nodetypes="cc" />
    <circle
       r="0.051671386"
       cy="2.0859582"
       cx="-5.4255729"
       id="path4257"
       style="opacity:1;fill:none;fill-opacity:1;fill-rule:nonzero;stroke:#e601b4;stroke-width:0.02026442;stroke-linecap:round;stroke-linejoin:round;stroke-miterlimit:4;stroke-dasharray:none;stroke-dashoffset:0;stroke-opacity:1" />
  </g>
</svg>

<?xml version="1.0" encoding="UTF-8"?>
<svg xmlns="http://www.w3.org/2000/svg" xmlns:xlink="http://www.w3.org/1999/xlink" width="24px" height="24px" viewBox="0 0 24 24" version="1.1">
<g id="surface1">
<path style="fill-rule:evenodd;fill:rgb(95.294118%,71.764708%,85.09804%);fill-opacity:1;stroke-width:0.146409;stroke-linecap:butt;stroke-linejoin:round;stroke:rgb(90.196079%,0.784314%,70.588237%);stroke-opacity:1;stroke-miterlimit:4;" d="M -5.518141 1.587522 C -5.556158 1.852001 -5.556158 1.852001 -5.785858 1.883816 L -5.78586 2.086556 C -5.556161 2.116749 -5.439163 2.878639 -5.439163 2.878639 L -5.417056 2.878639 C -5.417056 2.878639 -5.291682 2.116476 -5.062252 2.089783 L -5.062249 1.878955 C -5.291679 1.852267 -5.291679 1.852267 -5.323489 1.587519 Z M -5.518141 1.587522 " transform="matrix(7.244419,7.244596,-7.244419,7.244596,62.714673,39.905431)"/>
<path style="fill-rule:nonzero;fill:rgb(94.117647%,89.019608%,92.54902%);fill-opacity:1;stroke-width:0.146409;stroke-linecap:round;stroke-linejoin:round;stroke:rgb(90.196079%,0.784314%,70.588237%);stroke-opacity:1;stroke-miterlimit:4;" d="M -5.751063 0.581914 C -5.789886 0.581914 -5.82089 0.612919 -5.820891 0.651741 L -5.820902 1.594805 C -5.820902 1.594805 -5.643237 1.727177 -5.424052 1.726904 C -5.204866 1.727171 -5.027198 1.594795 -5.027198 1.594795 L -5.027186 0.651731 C -5.027186 0.612909 -5.058189 0.581905 -5.097012 0.581906 Z M -5.751063 0.581914 " transform="matrix(7.244419,7.244596,-7.244419,7.244596,62.714673,39.905431)"/>
<path style="fill:none;stroke-width:0.146409;stroke-linecap:butt;stroke-linejoin:round;stroke:rgb(90.196079%,0.784314%,70.588237%);stroke-opacity:1;stroke-miterlimit:4;" d="M -5.428919 2.910452 L -5.425135 2.139933 " transform="matrix(7.244419,7.244596,-7.244419,7.244596,62.714673,39.905431)"/>
<path style="fill:none;stroke-width:0.146409;stroke-linecap:round;stroke-linejoin:round;stroke:rgb(90.196079%,0.784314%,70.588237%);stroke-opacity:1;stroke-miterlimit:4;" d="M -5.37391 2.086012 C -5.373911 2.11459 -5.397097 2.137776 -5.425674 2.137776 C -5.453982 2.137507 -5.477168 2.114321 -5.477437 2.086013 C -5.477437 2.057435 -5.454251 2.03425 -5.425673 2.034249 C -5.397095 2.034249 -5.37391 2.057434 -5.37391 2.086012 Z M -5.37391 2.086012 " transform="matrix(7.244419,7.244596,-7.244419,7.244596,62.714673,39.905431)"/>
</g>
</svg>
